X:1
T:Llanfair, 77.77 alleluias
T:Llanfair, 77.77 alleluias
T:Robert Williams, 1817; harm, John Roberts 1837
T:Public Domain Courtesy of the Cyber Hymnal™
C:Robert Williams, 1817; harm, John Roberts 1837
Z:Public Domain
Z:Courtesy of the Cyber Hymnal™
%%score ( 1 2 ) ( 3 4 )
L:1/8
Q:1/4=110
M:none
K:F
V:1 treble 
V:2 treble 
V:3 bass 
V:4 bass 
V:1
|: [CF]2 [CF]2 [FA]2 [FA]2 | [Fc]2 ([GB][FA]) [EG]4 | c3 [EB] [FA]2 (BA) | G4 F4 :| %4
 [FA]2 [FA]2 [_Ec]2 [Ec]2 | (dc) (BA) [EG]4 | [FA]3 G A2 =B2 x5/2 | c4 [Ec]4 x2 | %8
 F2 [CF]2 [CA]2 [FA]2 | [Fc]2 ([GB][FA]) [EG]4 | c3 D B A2 ([B,FB][CA]) | G4 [CE]2 [CF]4 |] %12
V:2
|: x8 | x8 | (C2 D) x F2 x2 | (F2 E2) F4 :| x8 | D2 D2 x4 | x3 G3/2 F3 F3 | E3 F x6 | F2 x6 | x8 | %10
 C2- [C-E] [CF]2 x4 | [DF]2 x8 |] %12
V:3
|: [F,A,]2 [F,A,]2 [D,F,]2 [D,F,]2 | [A,,C]2 [B,,D]2 [C,G,]4 | A,3 [G,B,] [F,C]2 ([D,B,][C,C]) | %3
 ([B,,D]2 [C,C]2) [F,A,]4 :| [D,F,]2 [D,F,]2 [C,G,]2 [C,A,]2 | [B,,B,]2 [G,,B,]2 [C,C]4 | %6
 C6 F,2 [D,F,]2 x/ | G,3 A, z2 x4 | [A,C]2 ([A,C][G,B,]) [F,A,]2 [D,F,]2 | %9
 [A,,C]2 [B,,D]2 [C,G,]4 | [A,,F,]3 [G,,G,] [F,,A,]2 F,2- x | G,4 [C,E,]2 [F,,F,A,]4 |] %12
V:4
|: x8 | x8 | A,3 x5 | x8 :| x8 | x8 | F,3 E, F,2 x9/2 | C,4 C4 B,2 | x8 | x8 | x6 (G,,A,,) x | %11
 [B,,F,]2 x8 |] %12

